svg/fluentui-system-icons/ic_fluent_reading_list_add_16_filled.svg

<svg width="16" height="16" viewBox="0 0 16 16" fill="none" xmlns="http://www.w3.org/2000/svg">
<path d="M3.5 3.87991C3.5 3.54065 3.77503 3.26562 4.11429 3.26562C4.32689 3.26562 4.51472 3.373 4.6261 3.53996C4.85599 3.88452 5.32167 3.97749 5.66624 3.74761C6.01081 3.51773 6.10378 3.05204 5.87389 2.70748C5.49612 2.14123 4.84922 1.76562 4.11429 1.76562C2.9466 1.76562 2 2.71222 2 3.87991C2 4.93533 2.77332 5.81013 3.78425 5.96859C3.85259 5.98909 3.92504 6.00011 4.00006 6.00011H7.33698C8.23166 5.37008 9.32265 5.00011 10.5001 5.00011C11.0419 5.00011 11.5654 5.07846 12.06 5.22445C12.0464 4.82212 11.716 4.50011 11.3104 4.50011H4.20887C4.17789 4.49621 4.14633 4.4942 4.11429 4.4942C3.77503 4.4942 3.5 4.21917 3.5 3.87991ZM4.75 7.00011H6.25722C5.88863 7.44642 5.5891 7.95187 5.375 8.50011H4.75C4.33579 8.50011 4 8.16432 4 7.75011C4 7.33589 4.33579 7.00011 4.75 7.00011ZM2.75 9.50011H5.09075C5.03118 9.82438 5.00006 10.1586 5.00006 10.5001C5.00006 10.6687 5.00764 10.8354 5.02248 11.0001H2.75C2.33579 11.0001 2 10.6643 2 10.2501C2 9.83589 2.33579 9.50011 2.75 9.50011ZM4.74524 12.0001H5.20709C5.35927 12.5382 5.59129 13.0427 5.88953 13.5001H4.74524C4.33103 13.5001 3.99524 13.1643 3.99524 12.7501C3.99524 12.3359 4.33103 12.0001 4.74524 12.0001ZM7.75 2.00011C7.33579 2.00011 7 2.33589 7 2.75011C7 3.16432 7.33579 3.50011 7.75 3.50011H13.25C13.6642 3.50011 14 3.16432 14 2.75011C14 2.33589 13.6642 2.00011 13.25 2.00011H7.75ZM15.0001 10.5001C15.0001 12.9854 12.9853 15.0001 10.5001 15.0001C8.01478 15.0001 6.00006 12.9854 6.00006 10.5001C6.00006 8.01483 8.01478 6.00011 10.5001 6.00011C12.9853 6.00011 15.0001 8.01483 15.0001 10.5001ZM11.0001 8.50011C11.0001 8.22396 10.7762 8.00011 10.5001 8.00011C10.2239 8.00011 10.0001 8.22396 10.0001 8.50011V10.0001H8.50006C8.22392 10.0001 8.00006 10.224 8.00006 10.5001C8.00006 10.7762 8.22392 11.0001 8.50006 11.0001H10.0001V12.5001C10.0001 12.7762 10.2239 13.0001 10.5001 13.0001C10.7762 13.0001 11.0001 12.7762 11.0001 12.5001V11.0001H12.5001C12.7762 11.0001 13.0001 10.7762 13.0001 10.5001C13.0001 10.224 12.7762 10.0001 12.5001 10.0001H11.0001V8.50011Z" fill="#212121"/>
</svg>

<svg xmlns="http://www.w3.org/2000/svg" width="16" height="16"><path d="M3.5 3.88a.614.614 0 0 1 1.126-.34.75.75 0 0 0 1.248-.833A2.113 2.113 0 0 0 2 3.88c0 1.055.773 1.93 1.784 2.089A.75.75 0 0 0 4 6h3.337c.895-.63 1.986-1 3.163-1 .542 0 1.065.078 1.56.224a.75.75 0 0 0-.75-.724h-7.1a.757.757 0 0 0-.095-.006.614.614 0 0 1-.614-.614ZM4.75 7h1.507a5.496 5.496 0 0 0-.882 1.5H4.75a.75.75 0 0 1 0-1.5Zm-2 2.5h2.34a5.53 5.53 0 0 0-.068 1.5H2.75a.75.75 0 0 1 0-1.5ZM4.745 12h.462c.152.538.384 1.043.683 1.5H4.745a.75.75 0 0 1 0-1.5ZM7.75 2a.75.75 0 1 0 0 1.5h5.5a.75.75 0 0 0 0-1.5h-5.5ZM15 10.5a4.5 4.5 0 1 1-9 0 4.5 4.5 0 0 1 9 0Zm-4-2a.5.5 0 0 0-1 0V10H8.5a.5.5 0 0 0 0 1H10v1.5a.5.5 0 1 0 1 0V11h1.5a.5.5 0 0 0 0-1H11V8.5Z"/></svg>
